X:54
T:Robin Spraggon's Old Grey Mare
Z:Jack Campin, http://www.campin.me.uk/
S:Northumbrian Minstrelsy
M:6/8
L:1/8
K:C
    C|C C c  B2  A|(G2  F) E2 G|F2 E D2 C|c3- c2
    C|C2  c  B2  A| G2  F  E2 G|F2 E D2 C|c3- c2||
    G|c2  d  e2  f|(dB) c  A2 G|c2 B A2 G|G3
G G G|g2  e (cd) e| f2  d HB2 B|c2 E D2 B|c3- c2|]

